ui/StatusQ/src/assets/img/icons/code-block.svg

<svg fill="none" height="20" viewBox="0 0 20 20" width="20" xmlns="http://www.w3.org/2000/svg"><path clip-rule="evenodd" d="m4.90453 9.42566 1-8 1.19073.14884-1 8zm-3.8289-3.50132 2.5 2.5.84853-.84852-2.07574-2.07574 2.07574-2.07574-.84853-.84852-2.5 2.5-.424263.42426zm9.84857 0-2.50004 2.5-.84853-.84852 2.07574-2.07574-2.07574-2.07574.84853-.84852 2.50004 2.5.4242.42426zm.0754-2.82434c1.3671 0 2.4052.06321 3.2041.24313.7868.1772 1.2983.45808 1.6585.86628.3673.41635.6347 1.02984.8045 1.98173.17.95354.2328 2.19126.2328 3.80874 0 1.61902-.0631 2.85182-.2468 3.79992-.1826.9419-.4741 1.5475-.89 1.9633-.4158.4158-1.0213.7074-1.9633.8899-.948.1838-2.1809.2469-3.79989.2469-1.61748 0-2.85518-.0629-3.8087-.2329-.95187-.1697-1.56532-.4371-1.98164-.8044-.40816-.3602-.68901-.8716-.86619-1.6584-.1799-.7989-.2431-1.837-.2431-3.2041h-1.2c0 1.3829.06175 2.5323.27241 3.4677.21338.9476.58869 1.7173 1.24293 2.2946.64609.5701 1.5013.8964 2.56498 1.086 1.06204.1894 2.3868.2515 4.01931.2515 1.63099 0 2.96069-.0619 4.02819-.2688 1.0737-.2081 1.9369-.5728 2.5836-1.2195.6466-.6466 1.0114-1.5098 1.2194-2.5835.2069-1.0676.2688-2.3972.2688-4.02822 0-1.63252-.0621-2.95729-.2515-4.01936-.1896-1.0637-.5159-1.91893-1.086-2.56505-.5773-.65427-1.3471-1.02962-2.2946-1.24302-.9355-.21068-2.0848-.27245-3.4678-.27245z" fill="#09101c" fill-rule="evenodd"/></svg>

<svg width="20" height="20" viewBox="0 0 20 20" fill="none" xmlns="http://www.w3.org/2000/svg">
<path fill-rule="evenodd" clip-rule="evenodd" d="M4.90453 9.42566L5.90453 1.42566L7.09526 1.5745L6.09526 9.5745L4.90453 9.42566ZM1.07563 5.92434L3.57563 8.42434L4.42416 7.57582L2.34842 5.50008L4.42416 3.42434L3.57563 2.57582L1.07563 5.07582L0.651367 5.50008L1.07563 5.92434ZM10.9242 5.92434L8.42416 8.42434L7.57563 7.57582L9.65137 5.50008L7.57563 3.42434L8.42416 2.57582L10.9242 5.07582L11.3484 5.50008L10.9242 5.92434ZM10.9996 3.1C12.3667 3.1 13.4048 3.16321 14.2037 3.34313C14.9905 3.52033 15.502 3.80121 15.8622 4.20941C16.2295 4.62576 16.4969 5.23925 16.6667 6.19114C16.8367 7.14468 16.8995 8.3824 16.8995 9.99988C16.8995 11.6189 16.8364 12.8517 16.6527 13.7998C16.4701 14.7417 16.1786 15.3473 15.7627 15.7631C15.3469 16.1789 14.7414 16.4705 13.7994 16.653C12.8514 16.8368 11.6185 16.8999 9.99951 16.8999C8.38203 16.8999 7.14433 16.837 6.19081 16.667C5.23894 16.4973 4.62549 16.2299 4.20917 15.8626C3.80101 15.5024 3.52016 14.991 3.34298 14.2042C3.16308 13.4053 3.09988 12.3672 3.09988 11.0001H1.89988C1.89988 12.383 1.96163 13.5324 2.17229 14.4678C2.38567 15.4154 2.76098 16.1851 3.41522 16.7624C4.06131 17.3325 4.91652 17.6588 5.9802 17.8484C7.04224 18.0378 8.367 18.0999 9.99951 18.0999C11.6305 18.0999 12.9602 18.038 14.0277 17.8311C15.1014 17.623 15.9646 17.2583 16.6113 16.6116C17.2579 15.965 17.6227 15.1018 17.8307 14.0281C18.0376 12.9605 18.0995 11.6309 18.0995 9.99988C18.0995 8.36736 18.0374 7.04259 17.848 5.98052C17.6584 4.91682 17.3321 4.06159 16.762 3.41547C16.1847 2.7612 15.4149 2.38585 14.4674 2.17245C13.5319 1.96177 12.3826 1.9 10.9996 1.9V3.1Z" fill="#09101C"/>
</svg>
